X:1
T:B b Major Oliver Brownson, 1783
T:Isaac Watts, 1717 (Psalm 115, Part 2)      10 10. 10 10. 10 10.
T:Byford
T:Transcribed from Select Harmony, 1783.
%%score [ 1 2 3 4 ]
L:1/8
Q:1/4=140
M:4/4
K:Bb
V:1 treble nm="Treble" snm="Tr."
V:2 treble nm="Counter" snm="C."
V:3 treble-8 nm="Tenor" snm="T."
V:4 bass nm="Bass" snm="B."
V:1
"^1. Not  to our names, Thou on–ly  just  and true,   Not  to __________  our     worth     –     less  names is  glo - ry     due.""^2. Heaven is thine higher court, there stands thy throne,  And through the lo       –      wer  worlds thy will is done;" B8 | %1
 F2 F2 F2 A2 | B4 (c2 d2) | c4 B4 | A4 F4 | (B3 c B2) G2 | (A2 B2) c2 c2 | d4 f4 | (e2 d2) c4 | %9
 d8 | %10
"^1. Thy power and grace, thy truth and  jus        –         tice   claim         Im  –  mor–tal     honors    to      thy      sovereign      name.""^2. Our  God framed all this earth, these heavens         he spread;       But    fools  a  –   dore the gods their  hands have made:" c4 A2 A2 | %11
 B2 d2 c2 B2 | (e2 d2 c2) B2 | A8 | d4 d2 d2 | c2 c2 B2 B2 | c4 c4 | c8 | %18
"^1. Shine through the earth from heaven, thy blest abode,  Nor          let  the  heathens  say, ________ \"And   where's    your God?\"""^2. The  kneeling  crowd,  with  looks  devout,    be –  hold   Their       sil – ver   saviors,  and ________ their  saints        of      gold." d4 B2 B2 | %19
 c2 c2 A2 F2 | (G3 A Bc) d2 | d4 f4 | d2 B2 B2 B2 | (c2 d2 G2) B2 | (A3 B) A2 c2 | B8 |] %26
V:2
"^3. Vain are those artful shapes of eyes and ears;    The   mol     –      ten      im          –       age   neither  sees  nor  hears;""^4. The rich have statues well adorned with gold; The   poor,           con  –  tent                with gods of   coarser     mold," D8 | %1
 D2 D2 D2 F2 | F4 F4 | G4 F4 | F4 B,4 | D6 (DE) | (F2 ^E2 F2) G2 | F4 B4 | G4 F4 | D8 | %10
"^3. Their hands are helpless, nor their   feet _______   can   move,       They have no speech nor thought nor power nor love;""^4. With tools of       ir – on       carve the    sense      –      less   stock,       Lopped from a    tree, or   bro – ken    from    a           rock;" F4 F2 F2 | %11
 F2 D2 E2 F2 | (G4 F2) E2 | F8 | F4 D2 D2 | G2 F2 F2 E2 | C4 E4 | F8 | %18
"^3. Yet   sottish  mor–tals make their long         complaints     To             their  deaf  idols    and _______ their  move    –   less  saints.""^4. People and  priest drive on  the sol       –       emn  trade,  And         trust the gods that saws ______  and   ham   –   mers made." F4 F2 F2 | %19
 (FE) (DE) F2 F2 | (D3 E D2) F2 | G4 (A3 G) | (F>E) (DC) D2 D2 | (G>A) GF G2 G2 | F6 E2 | D8 |] %26
V:3
"^5. Be heav'n and earth amazed! 'Tis hard to say  Which is               more   stu        –        pid,  or  their  gods   or      they:""^6. O     nation,  trust  the  Lord:  thy  foes  in  vain   At  –  tempt         thy       ru          –        in,    and op – pose   his   reign;" F8 | %1
 B2 B2 B2 c2 | d4 (c2 B2) | e4 d4 | c4 B4 | (G3 F G2) d2 | (c2 B2 AB) c2 | f4 d4 | (c2 B2) A4 | %9
 B8 | %10
"^5. O          Israel,      trust   the Lord; he      hears _____   and  sees,          He  knows  thy   sorrows  and  re   –  stores  thy      peace;""^6. Had    they prevailed, darkness  had closed ____    our   day            And death and  silence   had   for –   bid       his      praise:" c4 c2 c2 | %11
 d2 (d>c) A2 F2 | (B2 G2 A2) B2 | c8 | B4 d2 f2 | e2 e2 (dc) B2 | A4 G4 | F8 | %18
"^5. His worship does a thousand  com         –        forts  yield,  He           is   thy  help, and  he _________  thy   heaven   –   ly shield.""^6. But  we  are  saved,  and  live;  let  songs        a    –    rise,    This        na–tion bless  the God _______  that  built             the skies." B4 d2 d2 | %19
 c2 c2 c2 A2 | (B3 c) d2 B2 | G4 c4 | d2 d2 d2 f2 | (e2 d2 B2) e2 | c6 A2 | B8 |] %26
V:4
 B,,8 | B,,2 B,,2 B,,2 F,2 | B,4 (F,2 D,2) | E,4 B,,4 | F,4 D,4 | (B,3 A, G,2) B,2 | %6
 (F,2 G,2) F,2 E,2 | D,4 B,,4 | E,4 F,4 | B,,8 | F,4 F,2 F,2 | B,,2 B,,2 C,2 D,2 | (E,4 F,2) G,2 | %13
 F,8 | B,4 B,2 B,2 | C2 A,2 (B,A,) G,2 | F,4 C,4 | F,8 | B,,4 B,,2 B,,2 | F,2 (F,G,) A,2 C2 | %20
 (B,3 A,) G,2 G,2 | G,4 F,4 | [B,,B,]2 [B,,B,]2 [B,,B,]2 [D,D]2 | ([C,C]2 [B,,B,]2) G,2 E,2 | %24
 F,6 F,2 | B,,8 |] %26

